logos/flattr-icon.svg

<?xml version="1.0" encoding="UTF-8"?>
<svg width="256px" height="256px" viewBox="0 0 256 256" version="1.1" xmlns="http://www.w3.org/2000/svg" xmlns:xlink="http://www.w3.org/1999/xlink" preserveAspectRatio="xMidYMid">
    <g>
        <path d="M256,28.46208 L256,128 C256,198.692448 198.692448,256 128,256 L128,256 L22.36928,256 L86.6816,190.1056 L101.0176,204.4416 L69.8112,235.64288 C73.83808,235.649536 79.669588,235.654461 86.1040992,235.658106 L87.5991436,235.658925 C88.351471,235.659323 89.110596,235.659705 89.8746725,235.66007 L91.4088808,235.66078 C91.6655003,235.660895 91.9225332,235.661009 92.1799111,235.66112 L93.7277728,235.661769 C93.9862576,235.661874 94.2449508,235.661977 94.5037839,235.662079 L96.8352154,235.66295 C97.094273,235.663043 97.3532656,235.663133 97.6121246,235.663222 L99.9364057,235.663984 C100.193849,235.664065 100.450953,235.664143 100.70765,235.664221 L103.005091,235.66488 C103.258731,235.66495 103.511759,235.665018 103.764107,235.665084 L107.489743,235.665988 C107.733577,235.666042 107.976389,235.666095 108.21811,235.666147 L112.436536,235.666961 C112.662708,235.667 112.88738,235.667038 113.110482,235.667075 L119.812238,235.667976 C119.992546,235.667995 120.170532,235.668013 120.346128,235.66803 L127.99488,235.66848 C187.36128,235.66848 235.66336,187.392 235.66336,128 L235.66336,128 L235.6631,127.336419 C235.663066,127.256867 235.663029,127.1705 235.662988,127.077469 L235.662154,125.200844 C235.662084,125.044903 235.662011,124.883044 235.661936,124.715418 L235.661183,123.055069 C235.661091,122.854177 235.660997,122.647966 235.660901,122.436583 L235.660294,121.107437 C235.660189,120.875969 235.66008,120.63963 235.65997,120.398568 L235.659282,118.89672 C235.659163,118.637365 235.659042,118.373586 235.658919,118.105533 L235.658158,116.447117 C235.657766,115.593458 235.657357,114.704017 235.656933,113.782828 L235.656066,111.899315 C235.649572,97.793988 235.640164,77.4377041 235.633947,63.5549085 L235.63312,61.70312 C235.632717,60.7984832 235.63233,59.9266289 235.631961,59.0915901 L235.631247,57.4717952 C235.631133,57.210409 235.63102,56.9534121 235.63091,56.700954 L235.630275,55.2418653 C235.630174,55.0081597 235.630075,54.7792916 235.629979,54.5554104 L235.62918,52.6791584 C235.629099,52.4865428 235.62902,52.2993623 235.628944,52.1177661 L235.628022,49.8313245 C235.627976,49.7093066 235.627932,49.59362 235.627892,49.484414 L235.62752,47.22688 L256,28.46208 Z M233.63072,0 L169.3184,65.8944 L154.9824,51.5584 L186.18368,20.35712 C182.1568,20.350464 176.325292,20.3455386 169.890781,20.3418937 L168.395736,20.3410751 C167.643409,20.340677 166.884284,20.3402955 166.120207,20.3399298 L164.585999,20.3392195 C164.32938,20.3391046 164.072347,20.3389914 163.814969,20.3388799 L162.267107,20.3382309 C162.008622,20.338126 161.749929,20.3380228 161.491096,20.3379212 L159.159665,20.3370496 C158.900607,20.3369574 158.641614,20.3368668 158.382755,20.3367777 L156.058474,20.3360158 C155.801031,20.3359355 155.543927,20.3358566 155.28723,20.3357792 L152.989789,20.3351196 C152.736149,20.3350503 152.483121,20.3349825 152.230773,20.3349159 L148.505137,20.3340118 C148.261303,20.3339576 148.018491,20.3339046 147.77677,20.3338528 L143.558344,20.3330386 C143.332172,20.3329996 143.1075,20.3329617 142.884398,20.3329247 L136.182642,20.3320239 C136.002334,20.3320052 135.824348,20.3319873 135.648752,20.3319699 L128,20.33152 C68.608,20.33152 20.33152,68.608 20.33152,128 L20.33152,128 L20.3319706,130.349235 C20.3320003,130.493192 20.3320314,130.643215 20.3320639,130.799156 L20.3329533,134.892563 C20.3330053,135.124031 20.3330586,135.36037 20.3331133,135.601432 L20.333833,138.711299 C20.3338983,138.987752 20.3339648,139.268329 20.3340327,139.552883 L20.3349079,143.148794 C20.3349859,143.462762 20.3350651,143.780109 20.3351456,144.100685 L20.335903,147.06901 C20.3359909,147.407614 20.3360799,147.748999 20.3361701,148.093015 L20.3367258,150.187491 C20.3368207,150.541435 20.3369169,150.897711 20.3370142,151.25617 L20.3379213,154.537217 C20.3380256,154.907431 20.3381309,155.27938 20.3382374,155.652915 L20.3388899,157.911956 C20.3390008,158.291236 20.3391129,158.671803 20.339226,159.053507 L20.3399181,161.356189 C20.3402706,162.51316 20.3406328,163.67768 20.3410044,164.845715 L20.34176,167.18528 C20.341888,167.57559 20.342017,167.965993 20.3421471,168.356338 L20.3429394,170.696522 C20.3436096,172.644109 20.3443047,174.582791 20.3450234,176.493895 L20.345897,178.772787 C20.3517952,193.861222 20.359168,206.706688 20.36736,207.74912 L20.36736,207.74912 L20.36736,208.77312 L0,227.5328 L0,128 C0,57.307552 57.307552,0 128,0 L128,0 L233.63072,0 Z" fill="#000000"></path>
    </g>
</svg>

<svg width="256" height="256" xmlns="http://www.w3.org/2000/svg" preserveAspectRatio="xMidYMid">
	<path d="M256 28.462V128c0 70.692-57.308 128-128 128H22.37l64.312-65.894 14.336 14.336-31.207 31.2c4.027.008 9.859.012 16.293.016H87.6l2.276.002h1.534l.77.001h1.549l.776.001h2.331l.777.001 2.324.001h3.069l.76.001 3.725.001h.728l4.219.001h.673l6.702.001h8.183c59.366 0 107.668-48.276 107.668-107.668v-2.799l-.001-.486v-1.66l-.001-.618v-1.33l-.001-.708v-1.502l-.001-.791v-1.659l-.002-2.664v-1.884l-.023-48.344v-1.852l-.002-2.611v-1.62l-.001-.771v-1.46l-.001-.686V52.68l-.001-.561-.001-2.287v-2.604L256 28.462ZM233.63 0l-64.312 65.894-14.336-14.336 31.202-31.2c-4.027-.008-9.859-.012-16.293-.016h-1.495l-2.276-.002h-1.534l-.771-.001h-1.548l-.776-.001-2.331-.001h-.777l-2.325-.001h-3.068l-.76-.001-3.725-.001h-.728l-4.219-.001h-.674l-6.701-.001H128C68.608 20.332 20.332 68.608 20.332 128V130.8l.001 4.093V138.71l.001.842v3.596l.001.952v2.968l.001 1.024v2.094l.001 1.07v3.28l.001 1.116v2.259l.001 1.142v2.302l.002 3.49v2.34l.001 1.17v2.34l.003 5.798v2.279c.007 15.088.014 27.934.022 28.976v1.024L0 227.533V128C0 57.308 57.308 0 128 0h105.63Z"/>
</svg>
